X:15
T:Recovery,The. RHu.015
S:R.Hughes MS,1823,Whitchurch,Shrops.
A:Whitchurch, Shropshire
Z:Neil Brookes 2006
M:2/4
L:1/8
Q:1/2=60
R:Country Dance
K:C
GcGc|d/c/d/e/d2|gfdB|c/B/c/d/c2|GcGc|d/c/d/e/d2|gfdB|d2d2||!
gfdB|ceG2|FF F/E/F/G/|F2E2|gfdB|ceG2|FF E/D/C/B,/|C2C2||!
ee/e/ e>e|e3f|edcB|A/B/c/d/e2|dd/d/ d>d|d3e|dcBA|”D.C.”G/F/G/A/G2|]

